epam-assets/icon-sources/18/communication-phone.svg

<svg width="18" height="18" viewBox="0 0 18 18" fill="none" xmlns="http://www.w3.org/2000/svg">
<g id="18/communication-phone">
<path id="icon" d="M14.9625 15.75C13.35 15.75 11.7782 15.3905 10.2473 14.6715C8.71575 13.953 7.3595 13.003 6.1785 11.8215C4.997 10.6405 4.047 9.28425 3.3285 7.75275C2.6095 6.22175 2.25 4.65 2.25 3.0375C2.25 2.8125 2.325 2.625 2.475 2.475C2.625 2.325 2.8125 2.25 3.0375 2.25H6.075C6.25 2.25 6.40625 2.30625 6.54375 2.41875C6.68125 2.53125 6.7625 2.675 6.7875 2.85L7.275 5.475C7.3 5.65 7.297 5.80925 7.266 5.95275C7.2345 6.09675 7.1625 6.225 7.05 6.3375L5.25 8.175C5.775 9.075 6.43125 9.91875 7.21875 10.7062C8.00625 11.4937 8.875 12.175 9.825 12.75L11.5875 10.9875C11.7 10.875 11.847 10.7905 12.0285 10.734C12.2095 10.678 12.3875 10.6625 12.5625 10.6875L15.15 11.2125C15.325 11.25 15.4688 11.3342 15.5812 11.4653C15.6937 11.5967 15.75 11.75 15.75 11.925V14.9625C15.75 15.1875 15.675 15.375 15.525 15.525C15.375 15.675 15.1875 15.75 14.9625 15.75Z" fill="#6C6F80"/>
</g>
</svg>

<svg xmlns="http://www.w3.org/2000/svg" width="18" height="18" fill="none" viewBox="0 0 18 18">
  <path fill="#6C6F80" d="M14.963 15.75c-1.613 0-3.185-.36-4.716-1.079a14.283 14.283 0 0 1-4.069-2.85 14.283 14.283 0 0 1-2.85-4.068C2.61 6.222 2.25 4.65 2.25 3.038c0-.225.075-.413.225-.563a.763.763 0 0 1 .563-.225h3.037a.72.72 0 0 1 .469.169.66.66 0 0 1 .244.431l.487 2.625c.025.175.022.334-.009.478a.77.77 0 0 1-.216.385l-1.8 1.837c.525.9 1.181 1.744 1.969 2.531a13.72 13.72 0 0 0 2.606 2.044l1.763-1.762a1.05 1.05 0 0 1 .44-.254 1.21 1.21 0 0 1 .534-.046l2.588.524a.762.762 0 0 1 .431.253.685.685 0 0 1 .169.46v3.037a.763.763 0 0 1-.225.563.763.763 0 0 1-.563.225Z"/>
</svg>
